X:0189
T:The Whipman Laddie
M:6/8
L:1/8
Q:3/8=120
I: :: ::
Z:Jack Campin * www.campin.me.uk * 2009
K:D Mixolydian
(f/g/)|afd f2d|gec  efg|afd Tf2d|gec d2:|
 d    |cAA BGG|cAA Te2d|cAA  BGG|ABA d2:|
<end>
<start>
